!!!!SEGMENT: pl-sa--39-a-i-39--001_graun-carl-heinrich--matyr-paterna.krn
!!!cenid: 17xx:612
!!!COM: Graun, Carl Heinrich
!!!COM-rismID: pe30001351
!!!CDT: 1704/05/07-1759/08/08
!!!CNT: German
!!!OTL: Matyr paterna
!!!PDT:
!!!AGN: Sacred
!!!SMS-siglum: PL-SA
!!!SMS-shelfmark: 39/A I 39
!!!SMS-shelfwork: 001 W
!!!SMS-variant:
!!!SMS-altvar:
!!!NIFC-rismSourceID: 1001039773
!!!NIFC-islandoraID:
!!!URL-pdf-islandora:
!!!URL-scan: https://bc.bdsandomierz.pl/dlibra/publication/1285/edition/1253/content @EN{Scan on Cyfrowa Biblioteka Diecezjalna w Sandomierzu} @PL{Skany w portalu Cyfrowa Biblioteka Diecezjalna w Sandomierzu}
!!!ONB-nifc:
!!!AIN: 1 organ 1 viola 2 violn 1 vox
!!!key:
**kern	**fba	**dynam	**kern	**dynam	**kern	**dynam	**kern	**dynam	**kern	**text
*part5	*	*part5	*part4	*part4	*part3	*part3	*part2	*part2	*part1	*part1
*	*	*	*group1	*	*group1	*	*group1	*	*	*
*staff5	*	*	*staff4	*	*staff3	*	*staff2	*	*staff1	*staff1
*Iorgan	*	*	*Iviola	*	*Ivioln	*	*Ivioln	*	*Ivox	*
*I"Organo.	*	*	*I"Alto Viola.	*	*I"Violino Secondo.	*	*I"Violino Primo.	*	*I"Canto Solo.	*
*I'org	*	*	*I'a-vla	*	*I'vl 2	*	*I'vl 1	*	*I'S solo	*
*clefF4	*	*	*clefC3	*	*clefG2	*	*clefG2	*	*clefC1	*
*k[f#c#]	*	*	*k[f#c#]	*	*k[f#c#]	*	*k[f#c#]	*	*k[f#c#]	*
*D:	*	*	*D:	*	*D:	*	*D:	*	*D:	*
*M4/4	*	*	*M4/4	*	*M4/4	*	*M4/4	*	*M4/4	*
*met(c)	*	*	*met(c)	*	*met(c)	*	*met(c)	*	*met(c)	*
*>[A,B,A]	*	*	*>[A,B,A]	*	*>[A,B,A]	*	*>[A,B,A]	*	*>[A,B,A]	*
*>A	*	*	*>A	*	*>A	*	*>A	*	*>A	*
!LO:TX:a:t=Largo. I.ma	!	!	!LO:TX:a:t=Largo I.ma	!	!LO:TX:a:t=Largo. I.ma	!	!	!	!LO:TX:a:t=I.ma	!
!	!	!	!	!	!	!	!LO:TX:a:t=Largo. I.ma	!	!LO:TX:a:t=Largo	!
!	!	!	!	!	!	!	!	!	!LO:TX:a:t=P:problem=kolejność krzyżyków f# cc#	!
8r	.	.	8r	.	8a/	.	8a/	.	8r	.
=1	=1	=1	=1	=1	=1	=1	=1	=1	=1	=1
8D\L	.	.	8f#\L	.	8dd\	.	8dd\	.	00r	.
8E\	6	.	8g\	.	(16.cc#\LL	.	(16.cc#\LL	.	.	.
!	!	!	!	!	!LO:N:vis=32dd	!	!LO:N:vis=32dd	!	!	!
.	.	.	.	.	64dd\LL	.	64dd\LL	.	.	.
!	!	!	!	!	!LO:N:vis=32ee	!	!LO:N:vis=32ee	!	!	!
.	.	.	.	.	64ee\JJJJ)	.	64ee\JJJJ)	.	.	.
8F#\	6	.	8a\	.	8dd\L	.	8dd\L	.	.	.
.	.	.	.	.	8qqcc#/	.	8qqcc#/	.	.	.
8G\J	.	.	8d\J	.	16b\L	.	8b\J	.	.	.
.	.	.	.	.	16g\JJ	.	.	.	.	.
!LO:TX:a:t=P:problem=mixed beam	!	!	!	!	!	!	!	!	!	!
.	.	.	.	.	8qqf#/	.	8qqa/	.	.	.
8A\L	8 6	.	4c#\	.	4e/	.	4g/	.	.	.
8AA/	7 5	.	.	.	.	.	.	.	.	.
!	!	!	!	!	!LO:TX:a:t=P:problem=mixed beam	!	!LO:TX:a:t=P:problem=mixed beam	!	!	!
8D\	.	.	8d\L	.	8d/L	.	8f#/L	.	.	.
8F#\J	6	.	8a\J	.	8dd\J	.	8dd\J	.	.	.
=2	=2	=2	=2	=2	=2	=2	=2	=2	=2	=2
8G\L	4 2	.	8a\L	.	(32ee\KLL	.	32ee\KLL	.	.	.
.	.	.	.	.	16.cc#\J)	.	16.cc#\J	.	.	.
8F#\	6	.	8a\	.	8dd\J	.	8dd\J	.	.	.
8C#\	6 3	.	8a\	.	(16.ee\LL	.	(16.ee\LL	.	.	.
!	!	!	!	!	!LO:N:vis=32ff#	!	!LO:N:vis=32ff#	!	!	!
.	.	.	.	.	64ff#\LL)	.	64ff#\LL)	.	.	.
!	!	!	!	!	!LO:N:vis=32gg	!	!LO:N:vis=32gg	!	!	!
.	.	.	.	.	64gg\JJJJ	.	64gg\JJJ	.	.	.
8D\J	.	.	8a\J	.	(32ff#\KLL	.	8ff#\J	.	.	.
.	.	.	.	.	16.dd\JJ)	.	.	.	.	.
.	.	.	.	.	8qqdd/	.	8qqff#/	.	.	.
8AA/L	.	.	8g\L	.	8cc#\L	.	8ee\L	.	.	.
8DD/J	.	.	8f#\J	.	(16dd\L	.	16dd\L	.	.	.
.	.	.	.	.	16ee\JJ)	.	16aa\JJ	.	.	.
8r	.	.	8r	.	(16ff#\LL	.	(16aa\LL	.	.	.
.	.	.	.	.	16ee\)	.	16gg\)	.	.	.
8G\	6	.	8g\	.	(16ee\	.	(16gg\	.	.	.
.	.	.	.	.	16dd\JJ)	.	16ff#\JJ)	.	.	.
=3	=3	=3	=3	=3	=3	=3	=3	=3	=3	=3
!LO:TX:a:t=P:problem=mixed beam	!	!	!LO:TX:a:t=P:problem=mixed beam	!	!	!	!	!	!	!
8A\L	6 4	.	8a\L	.	(16dd\LL	.	(16ff#\LL	.	.	.
.	.	.	.	.	16cc#\)	.	16ee\)	.	.	.
8AA/J	5 3	.	8A/J	.	(16cc#\	.	(16ee\	.	.	.
.	.	.	.	.	16ee\JJ)	.	16ccc#\JJ)	.	.	.
8r	.	.	8r	.	(16ee\LL	.	(16ccc#\LL	.	.	.
.	.	.	.	.	16ff#\)	.	16ddd\)	.	.	.
!	!	!	!LO:TX:a:t=P:problem=mixed beam	!	!	!	!	!	!	!
8G#X\	5	.	8g#X\L	.	(16ff#\	.	(16ddd\	.	.	.
.	.	.	.	.	16dd\JJ)	.	16ff#\JJ)	.	.	.
!LO:TX:a:t=P:problem=mixed beam	!	!	!	!	!	!	!	!	!	!
8A\L	6 4	.	8a\	.	(16dd\LL	.	(16ff#\LL	.	.	.
.	.	.	.	.	16cc#\)	.	16ee\)	.	.	.
8AA/J	5 3	.	8A/J	.	(16cc#\	.	(16ee\	.	.	.
.	.	.	.	.	16ee\JJ)	.	16ccc#\JJ)	.	.	.
8r	.	.	8r	.	(16ee\LL	.	(16ccc#\LL	.	.	.
.	.	.	.	.	16ff#\)	.	16ddd\)	.	.	.
8G#X\	7 5	.	8g#X\	.	(16ff#\	.	(16ddd\	.	.	.
.	.	.	.	.	16dd\JJ)	.	16ff#\JJ)	.	.	.
=4	=4	=4	=4	=4	=4	=4	=4	=4	=4	=4
!LO:TX:a:t=P:problem=mixed beam	!	!	!LO:TX:a:t=P:problem=mixed beam	!	!	!	!	!	!	!
.	.	.	.	.	8qqee/	.	8qqgg/	.	.	.
8A\L	6 4	.	8a\L	.	8dd\L	.	8ff#\L	.	.	.
8AA/J	5 3	.	8A/J	.	8cc#\J	.	8ee\J	.	.	.
16A\LL	.	.	16a\LL	.	16r	.	16r	.	.	.
16G\	4 2	.	16g\	.	16cc#\LL	.	16ee\LL	.	.	.
16F#\	6	.	16f#\	.	16dd\	.	16ff#\	.	.	.
16E\JJ	6	.	16e\JJ	.	16ee\JJ	.	16gg\JJ	.	.	.
8D\L	.	.	8d\L	.	8ff#\L	.	(32aa\KLL	.	.	.
.	.	.	.	.	.	.	16.ff#\)	.	.	.
8F#\	6	.	8d\	.	(32ee\KL	.	(32ee\K	.	.	.
.	.	.	.	.	16.dd\JJ)	.	16.dd\JJ)	.	.	.
8G\	6 5	.	8d\	.	(32ee\KLL	.	(32ee\KLL	.	.	.
.	.	.	.	.	16.ddd\)	.	16.bb\)	.	.	.
8A\J	.	.	8c#\J	.	(32aa\K	.	(32aa\K	.	.	.
.	.	.	.	.	16.gg\JJ)	.	16.gg\JJ)	.	.	.
!LO:LB:g=original	!	!	!	!	!	!	!	!	!	!
=5	=5	=5	=5	=5	=5	=5	=5	=5	=5	=5
8D\L	.	.	8d\L	.	(32ff#\KLL	.	(32ff#\KLL	.	0r	.
.	.	.	.	.	16.aa\)	.	16.aa\)	.	.	.
8F#\	6	.	8d\	.	(32ff#\K	.	(32ff#\K	.	.	.
.	.	.	.	.	16.dd\JJ)	.	16.dd\JJ)	.	.	.
8G\	6 5	.	8d\	.	(32ee\KLL	.	(32ee\KLL	.	.	.
.	.	.	.	.	16.bb\)	.	16.bb\)	.	.	.
8A\J	.	.	8c#\J	.	(32aa\K	.	(32aa\K	.	.	.
.	.	.	.	.	16.gg\JJ)	.	16.gg\JJ)	.	.	.
!	!	!	!	!	!LO:LB:g=original	!	!	!	!	!
8D\L	.	.	8d\L	.	(32ff#\KLL	.	(16ff#\LL	.	.	.
.	.	.	.	.	16.ddd\)	.	.	.	.	.
.	.	.	.	.	.	.	16ddd\)	.	.	.
8F#\	.	.	8d\	.	(32ff#\K	.	(16ff#\	.	.	.
.	.	.	.	.	16.dd\JJ)	.	.	.	.	.
.	.	.	.	.	.	.	16dd\JJ)	.	.	.
8G\	.	.	8f#\	.	(32ee\KLL	.	(32ee\KLL	.	.	.
.	.	.	.	.	16.bb\)	.	16.bb\)	.	.	.
8A\J	.	.	8g\J	.	(32aa\K	.	(32aa\K	.	.	.
.	.	.	.	.	16.cc#\JJ)	.	16.cc#\JJ)	.	.	.
!	!	!	!	!	!	!	!LO:LB:g=original	!	!	!
=6	=6	=6	=6	=6	=6	=6	=6	=6	=6	=6
!LO:TX:a:t=P:problem=mixed beam	!	!	!	!	!	!	!	!	!	!
8B\L	.	.	8f#\L	.	8.ddT\L	.	8.dd\L	.	.	.
8BB/	6	.	8f#\	.	.	.	.	.	.	.
.	.	.	.	.	32cc#\LL	.	32cc#\LL	.	.	.
.	.	.	.	.	32dd\JJJ	.	32dd\JJJ	.	.	.
!	!	!	!	!	!LO:TX:a:t=P:problem=mixed beam	!	!LO:TX:a:t=P:problem=mixed beam	!	!	!
8C#/	6 5	.	8e\	.	8ee\L	.	8ee\L	.	.	.
8C#/J	.	.	8e\J	.	8g/J	.	8g/J	.	.	.
!LO:TX:a:t=P:problem=mixed beam	!	!	!	!	!	!	!	!	!	!
8D\L	.	.	8d\L	.	(32f#\LLL	.	32f#/LLL	.	.	.
.	.	.	.	.	32a\	.	(32a/	.	.	.
.	.	.	.	.	32dd\	.	32dd/)	.	.	.
.	.	.	.	.	32a\JJJ)	.	32a/JJJ	.	.	.
8G\	.	.	8d\	.	32b/LLL	.	32b/LLL	.	.	.
.	.	.	.	.	(32g/	.	(32g/	.	.	.
.	.	.	.	.	32f#/)	.	32f#/)	.	.	.
.	.	.	.	.	32e/JJJ	.	32e/JJJ	.	.	.
8A\	6 4	.	8d\	.	8d/L	.	8d/L	.	.	.
8AA/J	x 3	.	8c#\J	.	8e/J	.	8e/J	.	.	.
=7	=7	=7	=7	=7	=7	=7	=7	=7	=7	=7
!LO:TX:a:t=P:problem=mixed beam	!	!	!LO:TX:a:t=P:problem=mixed beam	!	!	!	!LO:TX:a:t=P:problem=mixed beam	!	!	!
8D\L	.	.	8d\L	.	8.d/L	.	8.d/L	.	4r	.
8DD/J	.	.	8D/J	.	.	.	.	.	.	.
.	.	.	.	.	16a/Jk	.	16ff#\Jk	.	.	.
4r	.	.	4r	.	16a/LL	.	16ff#\LL	.	8r	.
.	.	.	.	.	16g/	.	16ee\	.	.	.
.	.	.	.	.	16g/	.	16ee\	.	8a\	Mar-
.	.	.	.	.	16f#/JJ	.	16dd\JJ	.	.	.
*	*	*below	*	*	*	*	*	*below	*	*
!	!	!LO:DY:t=piano.	!	!	!	!	!	!	!	!
8D\L	.	p	8d\L	p	8f#/L	p	8dd\L	p	8dd\	-tÿr
8E\	6	.	8e\	.	8g/	.	8cc#\	.	16.cc#\LL	Pa-
!	!	!	!	!	!	!	!	!	!LO:N:vis=32dd	!
.	.	.	.	.	.	.	.	.	64dd\LL	.
!	!	!	!	!	!	!	!	!	!LO:N:vis=32ee	!
.	.	.	.	.	.	.	.	.	64ee\JJJJ	.
8F#\	6	.	8f#\	.	8a/	.	8dd\	.	8dd\	-ter-
!	!	!	!	!	!	!	!	!	!LO:N:vis=16b	!
8G\J	.	.	8d\J	.	8g/J	.	8b\J	.	8b\	-na
!	!	!	!LO:LB:g=original	!	!	!	!	!	!	!
=8	=8	=8	=8	=8	=8	=8	=8	=8	=8	=8
!LO:TX:a:t=P:problem=mixed beam	!	!	!	!	!	!	!	!	!	!
.	.	.	8qqd/	.	8qqf#/	.	8qqa/	.	8qqa/	.
8A\L	8 6	.	4c#\	.	4e/	.	4g/	.	4g/	ma-
8AA/	7 5	.	.	.	.	.	.	.	.	.
!	!	!	!	!	!	!	!LO:TX:a:t=P:problem=mixed beam	!	!	!
8D\	.	.	8d\L	.	8d/L	.	8f#/L	.	8f#/	-nu
8F#\J	6	.	8f#\J	.	8a/J	.	8dd\J	.	8dd\	te
8G\L	4 2	.	8g\L	.	8cc#\L	.	8ee\L	.	(16.ee\LL	pi-
.	.	.	.	.	.	.	.	.	32cc#\JJk)	.
8F#\	6	.	8a\	.	8dd\	.	8dd\	.	8dd\	-a
8C#\	6 5	.	8a\	.	8ee\	.	8gg\	.	16.ee\LL	mens
!	!	!	!	!	!	!	!	!	!LO:N:vis=32ff#	!
.	.	.	.	.	.	.	.	.	64ff#\LL	.
!	!	!	!	!	!	!	!	!	!LO:N:vis=32gg	!
.	.	.	.	.	.	.	.	.	64gg\JJJJ	.
8D\J	.	.	8a\J	.	8dd\J	.	8ff#\J	.	8ff#\	im-
=9	=9	=9	=9	=9	=9	=9	=9	=9	=9	=9
.	.	.	.	.	8qqdd/	.	8qqff#/	.	8qqff#/	.
8AA/L	7	.	8g\L	.	8cc#\L	.	8ee\L	.	8ee\	-plo-
8DD/J	.	.	8f#\J	.	16dd\L	.	16dd\L	.	8dd\	-rat,
.	.	.	.	.	16ff#\JJ	.	16aa\JJ	.	.	.
4r	.	.	4r	.	16ff#\LL	.	16aa\LL	.	8r	.
.	.	.	.	.	16ee\	.	16gg\	.	.	.
.	.	.	.	.	16ee\	.	16gg\	.	8a\	Con-
.	.	.	.	.	16dd\JJ	.	16ff#\JJ	.	.	.
8D\L	.	.	8d\L	.	8dd\L	.	8ff#\L	.	8dd\	-ser-
8E\	6	.	8e\	.	8cc#\	.	8ee\	.	16.cc#\LL	-va
!	!	!	!	!	!	!	!	!	!LO:N:vis=32dd	!
.	.	.	.	.	.	.	.	.	64dd\LL	.
!	!	!	!	!	!	!	!	!	!LO:N:vis=32ee	!
.	.	.	.	.	.	.	.	.	64ee\JJJJ	.
8F#\	6	.	8f#\	.	8a\	.	8dd\	.	8dd\	nos
8G\J	.	.	8d\J	.	8g\J	.	8b\J	.	8b\	Cli-
!	!	!	!	!	!	!	!	!	!LO:LB:g=original	!
=10	=10	=10	=10	=10	=10	=10	=10	=10	=10	=10
!LO:TX:a:t=P:problem=mixed beam	!	!	!	!	!	!	!	!	!	!
.	.	.	8qqd/	.	8qqf#/	.	8qqa/	.	8qqa/	.
8A\L	8 6	.	4c#/	.	4e/	.	4g/	.	4g/	-en-
8AA/	7 5	.	.	.	.	.	.	.	.	.
!	!	!	!	!	!	!	!LO:TX:a:t=P:problem=mixed beam	!	!	!
8D/	.	.	8d\L	.	8d/L	.	8f#/L	.	8f#/	-tes
8F#/J	.	.	8f#\J	.	8a/J	.	8dd\J	.	4dd\	te
4.G\	6	.	4.g\	.	8b\L	.	8dd\L	.	.	.
.	.	.	.	.	16.cc#\L	.	16.ee\L	.	16.ee\	pi-
.	.	.	.	.	32dd\JJk	.	32ff#\JJk	.	32ff#\	-um
.	.	.	.	.	8ee\L	.	8gg\L	.	8gg\	cor
8G#X\	.	.	8g#X\	.	8dd\J	.	8ff#\J	.	8ff#\	ex-
!LO:LB:g=original	!	!	!	!	!	!	!	!	!	!
=11	=11	=11	=11	=11	=11	=11	=11	=11	=11	=11
!LO:TX:a:t=P:problem=mixed beam	!	!	!LO:TX:a:t=P:problem=mixed beam	!	!	!	!	!	!	!
8A\L	.	.	8a\L	.	8dd\L	.	8ff#\L	.	8ff#\	-o-
8AA/J	.	.	8A/J	.	16cc#\L	.	16ee\L	.	8ee\	-rat
.	.	.	.	.	16ee\JJ	.	16ccc#\JJ	.	.	.
4r	.	.	4r	.	16ee\LL	.	16ccc#\LL	.	4r	.
.	.	.	.	.	16dd\	.	16bb\	.	.	.
.	.	.	.	.	16dd\	.	16bb\	.	.	.
.	.	.	.	.	16cc#\JJ	.	16aa\JJ	.	.	.
!	!	!	!	!	!LO:LB:g=original	!	!	!	!	!
8AA/L	.	.	8A/L	.	8cc#\L	.	8aa\L	.	(16.ee\LL	pi-
.	.	.	.	.	.	.	.	.	32cc#\JJk)	.
8C#/	6	.	8c#/	.	8cc#\	.	8aa\	.	(16.b\LL	-a
.	.	.	.	.	.	.	.	.	32a\JJk)	.
8D/	6 5	.	8d/	.	8b\	.	8aa\	.	(16.b\LL	mens
.	.	.	.	.	.	.	.	.	32ff#\JJk)	.
8E/J	#	.	8e/J	.	8b\J	.	8gg#X\J	.	(16.ee\LL	im-
.	.	.	.	.	.	.	.	.	32dd\JJk)	.
=12	=12	=12	=12	=12	=12	=12	=12	=12	=12	=12
8A\L	.	.	8a\L	.	8cc#\L	.	(32ee\KLL	.	(32cc#\LLL	-plo-
.	.	.	.	.	.	.	16.cc#\)	.	32b\JJJ)	.
.	.	.	.	.	.	.	.	.	16a\	-rat
8C#\	6	.	8a\	.	16.b\L	.	(16.b\	.	8r	.
.	.	.	.	.	32a\JJk	.	32a\JJk)	.	.	.
8D\	6 5	.	8a\	.	(32b\KLL	.	(32b\KLL	.	8r	.
.	.	.	.	.	16.ff#\)	.	16.ff#\)	.	.	.
8E\J	#	.	8g#X\J	.	(32ee\K	.	(32ee\K	.	8ee\	te
.	.	.	.	.	16.dd\JJ)	.	16.dd\JJ)	.	.	.
!	!	!	!	!	!	!	!LO:LB:g=original	!	!	!
8A\L	.	.	8a\L	.	8cc#\L	.	8cc#\L	.	(16.ee\LL	pi-
.	.	.	.	.	.	.	.	.	32cc#\JJk)	.
8C#\	.	.	8c#\	.	8cc#\	.	8aa\	.	(16.b\LL	-um
.	.	.	.	.	.	.	.	.	32a\JJk)	.
8D\	.	.	8d\	.	8b\	.	8aa\	.	(16.b\LL	cor
.	.	.	.	.	.	.	.	.	32ff#\JJk)	.
8E\J	.	.	8d\J	.	8b\J	.	8gg#X\J	.	(16.ee\LL	ex-
.	.	.	.	.	.	.	.	.	32dd\JJk)	.
=13	=13	=13	=13	=13	=13	=13	=13	=13	=13	=13
!LO:TX:a:t=P:problem=mixed beam	!	!	!LO:TX:a:t=P:problem=mixed beam	!	!	!	!	!	!	!
8AA/L	.	.	8A/L	.	(16cc#'\LL	.	16aa\LL	.	8cc#\L	-o-
.	.	.	.	.	16cc#'\	.	16aa\	.	.	.
8A\	.	.	8a\	.	16cc#'\	.	16aa\	.	8cc#\J	.
.	.	.	.	.	16cc#'\JJ)	.	16aa\JJ	.	.	.
8A\	.	.	8a\	.	16cc#\LL	.	16aa\LL	.	8.cc#\L	.
.	.	.	.	.	16cc#\	.	16aa\	.	.	.
8A\J	.	.	8a\J	.	16cc#\	.	16aa\	.	.	.
.	.	.	.	.	16cc#\JJ	.	16aa\JJ	.	32dd\LL	.
.	.	.	.	.	.	.	.	.	32ee\JJJ	.
8D\L	7	.	8a\L	.	16cc#\LL	.	16ff#\LL	.	8.ff#\L	.
.	.	.	.	.	16cc#\	.	16ff#\	.	.	.
8D\	.	.	8a\	.	16cc#\	.	16ff#\	.	.	.
.	.	.	.	.	16cc#\JJ	.	16ff#\JJ	.	32aa\LL	.
.	.	.	.	.	.	.	.	.	32gg#X\JJJ	.
!	!	!	!	!	!	!	!	!	!LO:LB:g=original	!
8D\	.	.	8a\	.	16cc#\LL	.	16ff#\LL	.	16ff#\LL	.
.	.	.	.	.	16cc#\	.	16ff#\	.	16ee\	.
8D\J	.	.	8a\J	.	16cc#\	.	16ff#\	.	16dd\	.
.	.	.	.	.	16cc#\JJ	.	16ff#\JJ	.	16cc#\JJ	.
=14	=14	=14	=14	=14	=14	=14	=14	=14	=14	=14
8G#X\L	7	.	8g#X\L	.	16b/LL	.	16ff#\LL	.	8.b\L	.
.	.	.	.	.	16b/	.	16ff#\	.	.	.
8G#\	.	.	8g#\	.	16b/	.	16ff#\	.	.	.
.	.	.	.	.	16b/JJ	.	16ff#\JJ	.	32dd\LL	.
.	.	.	.	.	.	.	.	.	32cc#\JJJ	.
8G#\	.	.	8g#\	.	16b/LL	.	16ff#\LL	.	8.b\L	.
.	.	.	.	.	16b/	.	16ff#\	.	.	.
8G#\J	.	.	8g#\J	.	16b/	.	16ff#\	.	.	.
.	.	.	.	.	16b/JJ	.	16ff#\JJ	.	32cc#\LL	.
.	.	.	.	.	.	.	.	.	32dd\JJJ	.
8C#/L	7	.	8g#\L	.	16b/LL	.	16ee\LL	.	8.ee\L	.
.	.	.	.	.	16b/	.	16ee\	.	.	.
8C#/	.	.	8g#\	.	16b/	.	16ee\	.	.	.
.	.	.	.	.	16b/JJ	.	16ee\JJ	.	32gg#X\LL	.
.	.	.	.	.	.	.	.	.	32ff#\JJJ	.
8C#/	.	.	8g#\	.	16b/LL	.	16ee\LL	.	16ee\LL	.
.	.	.	.	.	16b/	.	16ee\	.	16dd\	.
8C#/J	.	.	8g#\J	.	16b/	.	16ee\	.	16cc#\	.
.	.	.	.	.	16b/JJ	.	16ee\JJ	.	16b\JJ	.
=15	=15	=15	=15	=15	=15	=15	=15	=15	=15	=15
8F#\L	7	.	8f#\L	.	16a/LL	.	16ee\LL	.	8.a\L	.
.	.	.	.	.	16a/	.	16ee\	.	.	.
8F#\	.	.	8f#\	.	16a/	.	16ee\	.	.	.
.	.	.	.	.	16a/JJ	.	16ee\JJ	.	32cc#\LL	.
.	.	.	.	.	.	.	.	.	32b\JJJ	.
8F#\	.	.	8f#\	.	16a/LL	.	16ee\LL	.	8.a\L	.
.	.	.	.	.	16a/	.	16ee\	.	.	.
8F#\J	.	.	8f#\J	.	16a/	.	16ee\	.	.	.
.	.	.	.	.	16a/JJ	.	16ee\JJ	.	32b\LL	.
.	.	.	.	.	.	.	.	.	32cc#\JJJ	.
8BB/L	7	.	8f#\L	.	16a/LL	.	16dd\LL	.	8.dd\L	.
.	.	.	.	.	16a/	.	16dd\	.	.	.
8BB/	.	.	8f#\	.	16a/	.	16dd\	.	.	.
.	.	.	.	.	16a/JJ	.	16dd\JJ	.	16aa\Jk	.
8E/	7 #	.	8e\	.	16g#X/LL	.	16dd\LL	.	16gg#X\LL	.
.	.	.	.	.	16g#/	.	16dd\	.	16ff#\	.
8E/J	.	.	8e\J	.	16g#/	.	16dd\	.	16ee\	.
.	.	.	.	.	16g#/JJ	.	16dd\JJ	.	16dd\JJ	.
!	!	!	!LO:LB:g=original	!	!	!	!	!	!	!
=16	=16	=16	=16	=16	=16	=16	=16	=16	=16	=16
8A\L	.	.	8A/L	.	8a/L	.	8cc#\L	.	16.cc#\LL	.
.	.	.	.	.	.	.	.	.	32dd\JJk	.
8G#X\J	6	.	8G#X/J	.	8e/J	.	8b\J	.	8ee\	-rat
8r	.	.	8r	.	8r	.	8r	.	8r	.
!LO:LB:g=original	!	!	!	!	!	!	!	!	!	!
8G#\	7 5	.	8g#X\	.	8dd\	.	8ff#\	.	8ff#\	te
!LO:TX:a:t=P:problem=mixed beam	!	!	!	!	!	!	!	!	!	!
8A\L	.	.	8a\L	.	8cc#\L	.	8ee\L	.	(16.ee\LL	pi-
.	.	.	.	.	.	.	.	.	32cc#\JJk)	.
8D\	6	.	8d\	.	8b\	.	8dd\	.	(16.dd\LL	-um
.	.	.	.	.	.	.	.	.	32b\JJk)	.
8E\	4	.	8e\	.	8a\	.	8cc#\	.	(16.cc#\LL	cor
.	.	.	.	.	.	.	.	.	32a\JJk)	.
8EE/J	#	.	8e\J	.	8g#X\J	.	8b\J	.	(16.b\LL	ex-
!	!	!	!	!	!	!	!	!	!LO:SIC:v:s=32g#	!
.	.	.	.	.	.	.	.	.	32g\JJk)	.
!	!	!	!	!	!LO:LB:g=original	!	!	!	!	!
=17	=17	=17	=17	=17	=17	=17	=17	=17	=17	=17
!	!	!	!	!	!LO:TX:a:t=P:problem=mixed beam	!	!LO:TX:a:t=P:problem=mixed beam	!	!	!
8AA/L	.	.	8c#\L	.	(>32a/KLL	.	(32a/KLL	.	32a\KLL	-o-
.	.	.	.	.	16.aa\)	.	16.aa\)	.	16.aa\	.
8BB/	6\	.	8d\	.	(>32gg#X\K	.	(32gg#X\K	.	32gg#X\K	.
.	.	.	.	.	16.ff#\JJ)	.	16.ff#\JJ)	.	16.ff#\JJ	.
8C#/	6	.	8e\	.	(32ee\KLL	.	(32ee\KLL	.	32ee\KLL	.
.	.	.	.	.	16.dd\)	.	16.dd\)	.	16.dd\	.
8D/J	6	.	8f#\J	.	(32cc#\K	.	(32cc#\K	.	32cc#\K	.
.	.	.	.	.	16.b\JJ)	.	16.b\JJ)	.	16.b\JJ	.
!LO:TX:a:t=P:problem=mixed beam	!	!	!	!	!	!	!	!	!	!
8E\L	.	.	8e\L	.	8a/L	.	8cc#\L	.	8.a\L	.
8E\	.	.	8e\	.	8a/	.	8cc#\	.	.	.
.	.	.	.	.	.	.	.	.	16b\Jk	.
8EE/	.	.	8e\	.	8a/	.	8b\	.	4b\	.
8EE/J	.	.	8e\J	.	8g#X/J	.	8b\J	.	.	.
=18	=18	=18	=18	=18	=18	=18	=18	=18	=18	=18
!	!	!	!	!	!	!	!	!LO:DY:a	!	!
8AA/L	.	.	4c#\	.	8.a/L	f	8.a\L	f	4a\	-rat,
8AA/J	.	.	.	.	.	.	.	.	.	.
.	.	.	.	.	16cc#/Jk	.	16ee\Jk	.	.	.
8r	.	.	8r	.	(16cc#/LL	.	16ee\LL	.	4r	.
.	.	.	.	.	16b/)	.	16dd\	.	.	.
!	!	!LO:DY:t=forte.	!LO:TX:a:t=P:problem=mixed beam	!	!	!	!	!	!	!
8D\	6	f	8d\L	.	(16b/	.	16dd\	.	.	.
.	.	.	.	.	16a/JJ)	.	16cc#\JJ	.	.	.
!LO:TX:a:t=P:problem=mixed beam	!	!	!	!	!	!	!LO:LB:g=original	!	!	!
8E\L	6 4	.	8e\	.	(16a/LL	.	(16cc#\LL	.	2r	.
.	.	.	.	.	16g#X/)	.	16b\)	.	.	.
8EE/J	x #	.	8E/J	.	(16g#/	.	(16b\	.	.	.
.	.	.	.	.	16b/JJ)	.	16gg#X\JJ)	.	.	.
8r	.	.	8r	.	(16b\LL	.	(16gg#\LL	.	.	.
.	.	.	.	.	16cc#\)	.	16aa\)	.	.	.
8D#X\	7	.	8d#X\	.	(16cc#\	.	(16aa\	.	.	.
.	.	.	.	.	16a\JJ)	.	16cc#\JJ)	.	.	.
=19	=19	=19	=19	=19	=19	=19	=19	=19	=19	=19
!LO:TX:a:t=P:problem=mixed beam	!	!	!LO:TX:a:t=P:problem=mixed beam	!	!	!	!	!	!	!
8E\L	6 4	.	8e\L	.	(16a/LL	.	(16cc#\LL	.	1r	.
.	.	.	.	.	16g#X/)	.	16b\)	.	.	.
8EE/J	5 #	.	8E/J	.	(16g#/	.	(16b\	.	.	.
.	.	.	.	.	16b/JJ)	.	16gg#X\JJ)	.	.	.
8r	.	.	8r	.	(16b\LL	.	(16gg#\LL	.	.	.
.	.	.	.	.	16cc#\)	.	16aa\)	.	.	.
8D#X\	7	.	8d#X\	.	(16cc#\	.	(16aa\	.	.	.
.	.	.	.	.	16a\JJ)	.	16cc#\JJ)	.	.	.
8E\L	.	.	8e\L	.	(32g#X\LLL	.	(32b\LLL	.	.	.
.	.	.	.	.	32ee\	.	32ee\	.	.	.
.	.	.	.	.	32gg#X\	.	32gg#X\)	.	.	.
.	.	.	.	.	32bb\JJJ)	.	32bb\JJJ	.	.	.
16F#\L	.	.	16c#\L	.	32aa\LLL	.	32aa\LLL	.	.	.
.	.	.	.	.	(32a\	.	(32a\	.	.	.
16D#\JJ	.	.	16f#\JJ	.	32ff#\	.	32ff#\	.	.	.
.	.	.	.	.	32a\JJJ)	.	32a\JJJ)	.	.	.
!LO:TX:a:t=P:problem=mixed beam	!	!	!	!	!	!	!	!	!	!
8E\L	.	.	8e\L	.	8e/L	.	8e/L	.	.	.
8EE/J	.	.	8d#\J	.	8g#X/J	.	8b/J	.	.	.
!	!	!	!	!	!	!	!	!	!LO:LB:g=original	!
=20	=20	=20	=20	=20	=20	=20	=20	=20	=20	=20
!	!	!	!	!	!	!	!LO:TX:a:t=P:problem=mixed beam	!	!	!
8AA/L	.	.	4c#\	.	8.a/L	.	8.a/L	p	4r	.
8AA/J	.	.	.	.	.	.	.	.	.	.
.	.	.	.	.	16cc#/Jk	.	16aa\Jk	.	.	.
4r	.	.	4r	.	(16cc#/LL	.	16aa\LL	.	8r	.
.	.	.	.	.	16b/)	.	16ee\	.	.	.
.	.	.	.	.	(16b/	.	16ee\	.	8a\	Mar-
.	.	.	.	.	16a/JJ)	.	16dd\JJ	.	.	.
!	!	!LO:DY:t=piano.	!	!	!	!	!	!	!	!
8A\L	.	p	8a\L	.	8a\L	.	8cc#\L	.	8ee\	-tÿr
8A\	4 2	.	8a\	.	8b\	.	8dd\	.	16.dd\LL	Pa-
!	!	!	!	!	!	!	!	!	!LO:N:vis=32ee	!
.	.	.	.	.	.	.	.	.	64ee\LL	.
!	!	!	!	!	!	!	!	!	!LO:N:vis=32ff#	!
.	.	.	.	.	.	.	.	.	64ff#\JJJJ	.
8A\	5 3	.	8a\	.	8cc#\	.	8ee\	.	8ee\	-ter-
8A\J	6 4	.	8a\J	.	8dd\J	.	8ff#\J	.	16aa\LL	-na
.	.	.	.	.	.	.	.	.	16ff#\JJ	.
!LO:LB:g=original	!	!	!	!	!	!	!	!	!	!
=21	=21	=21	=21	=21	=21	=21	=21	=21	=21	=21
.	.	.	.	.	8qqcc#/	.	8qqee/	.	8qqee/	.
8r	.	.	8r	.	4b/	.	4dd\	.	4dd\	ma-
!LO:TX:a:t=P:problem=mixed beam	!	!	!	!	!	!	!	!	!	!
8E\L	8 6	.	8g#X\L	.	.	.	.	.	.	.
8AA/	7 5	.	8a\	.	8a/L	.	8cc#\L	.	8cc#\	-nu
8F#\J	6	.	8a\J	.	8a/J	.	8dd\J	.	8dd\	te
8G\L	4 2	.	8a\L	.	8cc#\L	.	8ee\L	.	32ee\KLL	pi-
.	.	.	.	.	.	.	.	.	16.cc#\JJ	.
8F#\	6	.	8a\	.	8dd\	.	8aa\	.	8dd\	-a
8C#\	6 5	.	8a\	.	8ee\	.	8gg\	.	16.ee\LL	mens
!	!	!	!	!	!	!	!	!	!LO:N:vis=32ff#	!
.	.	.	.	.	.	.	.	.	64ff#\LL	.
!	!	!	!	!	!	!	!	!	!LO:N:vis=32gg	!
.	.	.	.	.	.	.	.	.	64gg\JJJJ	.
8D\J	.	.	8a\J	.	8dd\J	.	8ff#\J	.	8ff#\	im-
=22	=22	=22	=22	=22	=22	=22	=22	=22	=22	=22
!LO:TX:a:t=P:problem=mixed beam	!	!	!LO:TX:a:t=P:problem=mixed beam	!	!	!	!	!	!	!
8A\L	.	.	8a\L	.	8dd\L	.	8ff#\L	.	8ff#\	-plo-
8AA/J	.	.	8A/J	.	16cc#\L	.	16ee\L	.	8ee\	-rat,
.	.	.	.	.	16gg\JJ	.	16bb\JJ	.	.	.
4r	.	.	4r	.	(16gg\LL	.	16bb\LL	.	8r	.
.	.	.	.	.	16ff#\)	.	16aa\	.	.	.
.	.	.	.	.	(16ff#\	.	16aa\	.	8a\	Con-
.	.	.	.	.	16ee\JJ)	.	16gg\JJ	.	.	.
!	!	!	!	!	!LO:LB:g=original	!	!	!	!	!
8D\L	.	.	8a\L	.	8dd\L	.	8ff#\L	.	8dd\	-ser-
8E\	6	.	8g\	.	16cc#\L	.	8ee\	.	16.cc#\LL	-va
.	.	.	.	.	16b\JJ	.	.	.	.	.
!	!	!	!	!	!	!	!	!	!LO:N:vis=32dd	!
.	.	.	.	.	.	.	.	.	64dd\LL	.
!	!	!	!	!	!	!	!	!	!LO:N:vis=32ee	!
.	.	.	.	.	.	.	.	.	64ee\JJJJ	.
8F#\	6	.	8f#\	.	8a/L	.	8dd\	.	8dd\	nos
8G\J	.	.	8d\J	.	8g/J	.	8b\J	.	8b\	Cli-
=23	=23	=23	=23	=23	=23	=23	=23	=23	=23	=23
!LO:TX:a:t=P:problem=mixed beam	!	!	!	!	!	!	!	!	!	!
.	.	.	8qqd/	.	8qqf#/	.	8qqa/	.	8qqa/	.
8A\L	8 6	.	4c#\	.	4e/	.	4gT/	.	4g\	-en-
8AA/	7 5	.	.	.	.	.	.	.	.	.
!LO:SIC:v:s=8D	!	!	!	!	!	!	!	!	!	!
8C#/J	.	.	8d\	.	8d/	.	8f#/	.	8f#/	-tes
!	!	!	!	!	!	!	!	!	!LO:N:vis=4.ccn	!
8r	.	.	8r	.	8r	.	8r	.	4cc#\	te
!	!	!	!LO:LB:g=original	!	!	!	!	!	!	!
8D\L	4	.	16a\LL	.	16ccn\LL	.	16ff#\LL	.	.	.
.	.	.	16a\	.	16cc\	.	16ff#\	.	.	.
!	!	!	!	!	!	!	!	!	!LO:SIC:v:s=16ccn	!
8D\	7	.	16a\	.	16cc\	.	16ff#\	.	16cc#\	pi-
!	!	!	!	!	!	!	!	!	!LO:SIC:v:s=16ccn	!
.	.	.	16a\JJ	.	16cc\JJ	.	16ff#\JJ	.	16cc#\	-um
8D\	.	.	16a\LL	.	16cc\LL	.	16ff#\LL	.	8ff#\	cor
.	.	.	16a\	.	16cc\	.	16ff#\	.	.	.
!	!	!	!	!	!	!	!	!	!LO:LB:g=original	!
!	!	!	!	!	!	!	!	!	!LO:SIC:v:s=8ccn	!
8D\J	.	.	16a\	.	16cc\	.	16ff#\	.	8cc#\	ex-
.	.	.	16a\JJ	.	16cc\JJ	.	16ff#\JJ	.	.	.
=24	=24	=24	=24	=24	=24	=24	=24	=24	=24	=24
!	!	!	!	!	!LO:SIC:v:s=16ccn	!	!	!	!LO:SIC:v:s=8ccn	!
8GG/L	4	.	16g\LL	.	16cc#\LL	.	16gg\LL	.	8cc#\	-o-
!	!	!	!	!	!LO:SIC:v:s=16ccn	!	!	!	!	!
.	.	.	16g\	.	16cc#\	.	16gg\	.	.	.
8GG/	3	.	16g\	.	16b\	.	16gg\	.	8b\	-rat,
.	.	.	16g\JJ	.	16b\JJ	.	16gg\JJ	.	.	.
!	!	!	!	!	!	!	!LO:LB:g=original	!	!	!
8GG/	.	.	16b\LL	.	16dd\LL	.	16gg\LL	.	4.dd\	te
.	.	.	16b\	.	16dd\	.	16gg\	.	.	.
8GG/J	.	.	16b\	.	16dd\	.	16gg\	.	.	.
.	.	.	16b\JJ	.	16dd\JJ	.	16gg\JJ	.	.	.
8E\L	7 #	.	16b\LL	.	16dd\LL	.	16gg#X\LL	.	.	.
.	.	.	16b\	.	16dd\	.	16gg#\	.	.	.
8E\	.	.	16b\	.	16dd\	.	16gg#\	.	16dd\	pi-
.	.	.	16b\JJ	.	16dd\JJ	.	16gg#\JJ	.	16dd\	-um
8E\	.	.	16b\LL	.	16dd\LL	.	16gg#\LL	.	8gg#X\	cor
.	.	.	16b\	.	16dd\	.	16gg#\	.	.	.
8E\J	.	.	16b\	.	16dd\	.	16gg#\	.	8dd\	ex-
.	.	.	16b\JJ	.	16dd\JJ	.	16gg#\JJ	.	.	.
=25	=25	=25	=25	=25	=25	=25	=25	=25	=25	=25
!LO:TX:a:t=P:problem=mixed beam	!	!	!	!	!	!	!	!	!	!
8AA/L	4	.	8a\L	.	16dd\LL	.	16aa\LL	.	8dd\	-o-
.	.	.	.	.	16dd\	.	16aa\	.	.	.
8AA/	3	.	8a\	.	16cc#\	.	16aa\	.	8cc#\	-rat
.	.	.	.	.	16cc#\JJ	.	16aa\JJ	.	.	.
8F#\	6	.	8f#\	.	16dd\LL	.	16aa\LL	.	8r	.
.	.	.	.	.	16dd\	.	16aa\	.	.	.
8F#\J	.	.	8f#\J	.	16dd\	.	16aa\	.	8a\	ex-
.	.	.	.	.	16dd\JJ	.	16aa\JJ	.	.	.
8G\L	.	.	8g\L	.	16dd\LL	.	16bb\LL	.	8b\L	-o-
.	.	.	.	.	16dd\	.	16bb\	.	.	.
8G\	.	.	8g\	.	16ggn\	.	16bb\	.	8gg\J	.
.	.	.	.	.	16gg\JJ	.	16bb\JJ	.	.	.
*	*	*	*	*	*	*	*	*	*Xtuplet	*
!	!	!	!	!	!	!	!	!	!LO:TUP:a:global:problem=klamra łukowa	!
8G\	.	.	8g\	.	16gg\LL	.	16bb\LL	.	24gg\LL	.
.	.	.	.	.	.	.	.	.	24ff#\	.
.	.	.	.	.	16gg\	.	16bb\	.	.	.
.	.	.	.	.	.	.	.	.	24ee\JJ	.
8G\J	.	.	8g\J	.	16gg\	.	16bb\	.	24dd\LL	.
.	.	.	.	.	.	.	.	.	24cc#\	.
.	.	.	.	.	16gg\JJ	.	16bb\JJ	.	.	.
.	.	.	.	.	.	.	.	.	24b\JJ	.
=26	=26	=26	=26	=26	=26	=26	=26	=26	=26	=26
8D\L	.	.	8d\L	.	16gg\LL	.	16aa\LL	.	8a\L	.
.	.	.	.	.	16gg\	.	16aa\	.	.	.
8D\	.	.	8d\	.	16ff#\	.	16aa\	.	8ff#\J	.
.	.	.	.	.	16ff#\JJ	.	16aa\JJ	.	.	.
8D\	.	.	8d\	.	16ff#\LL	.	16aa\LL	.	24ff#\LL	.
.	.	.	.	.	.	.	.	.	24ee\	.
.	.	.	.	.	16ff#\	.	16aa\	.	.	.
.	.	.	.	.	.	.	.	.	24dd\JJ	.
8D\J	.	.	8d\J	.	16ff#\	.	16aa\	.	24cc#\LL	.
.	.	.	.	.	.	.	.	.	24b\	.
.	.	.	.	.	16ff#\JJ	.	16aa\JJ	.	.	.
.	.	.	.	.	.	.	.	.	24a\JJ	.
!LO:LB:g=original	!	!	!	!	!	!	!	!	!	!
!LO:TX:a:t=P:problem=mixed beam	!	!	!	!	!	!	!	!	!	!
8E\L	9	.	8e\L	.	16ff#\LL	.	16gg\LL	.	8a\L	.
.	.	.	.	.	16ff#\	.	16gg\	.	.	.
8E\	8	.	8e\	.	16ee\	.	16gg\	.	[8ee\J	.
.	.	.	.	.	16ee\JJ	.	16gg\JJ	.	.	.
!	!	!	!	!	!	!	!	!	!LO:TUP:problem=brak klamry łukowej	!
8AA/	7	.	8c#\	.	16ee\LL	.	16gg\LL	.	24ee\LL]	.
.	.	.	.	.	.	.	.	.	24dd\	.
.	.	.	.	.	16ee\	.	16gg\	.	.	.
.	.	.	.	.	.	.	.	.	24cc#\JJ	.
8AA/J	.	.	8c#\J	.	16ee\	.	16gg\	.	24b\LL	.
.	.	.	.	.	.	.	.	.	24a\	.
.	.	.	.	.	16ee\JJ	.	16gg\JJ	.	.	.
.	.	.	.	.	.	.	.	.	24g\JJ	.
=27	=27	=27	=27	=27	=27	=27	=27	=27	=27	=27
8D/L	.	.	8d\L	.	8dd\L	.	8ff#\L	.	16f#/LL	.
.	.	.	.	.	.	.	.	.	16g/JJ	.
8C#/J	6	.	8c#\J	.	8a\J	.	8ee\J	.	8a\	-rat
8r	.	.	8r	.	8r	.	8r	.	8r	.
8F#\	6	.	8f#\	.	8a/	.	8dd\	.	8dd\	te
.	.	.	.	.	.	.	8qqcc#/	.	8qqcc#/	.
8G\L	.	.	8r	.	8r	.	8.b\L	.	8.b\	pi-
8G\	.	.	8g\	.	8b\	.	.	.	.	.
.	.	.	.	.	.	.	16gg\	.	16gg\	-um
!	!	!	!	!	!	!	!	!	!LO:LB:g=original	!
.	.	.	.	.	.	.	8qqff#/	.	8qqff#/	.
8G#X\	.	.	8r	.	8r	.	8.ee\	.	8.ee\	cor
!	!	!	!	!	!LO:N:vis=8	!	!	!	!	!
8G#\J	.	.	8g#X\	.	16cc#\	.	.	.	.	.
!	!	!	!	!	!LO:N:vis=8	!	!	!	!	!
.	.	.	.	.	16r	.	16dd\Jk	.	16dd\	ex-
!	!	!	!	!	!LO:LB:g=original	!	!	!	!	!
=28	=28	=28	=28	=28	=28	=28	=28	=28	=28	=28
8A\L	.	.	8a\L	.	8a/L	.	8cc#\L	.	8cc#\L	-o-
8F#\	.	.	8f#\	.	8a/J	.	8a\J	.	8a\J	.
8G\	.	.	8g\	.	(32b\KLL	.	(32b\KLL	.	32b\KLL	.
.	.	.	.	.	16.gg\)	.	16.bb\)	.	16.gg\	.
8G\J	.	.	8g\J	.	(32ff#\K	.	(32aa\K	.	32ff#\K	.
.	.	.	.	.	16.ee\JJ)	.	16.gg\JJ)	.	16.ee\JJ	.
!LO:TX:a:t=P:problem=mixed beam	!	!	!	!	!	!	!	!	!	!
8A\L	.	.	8a\L	.	8dd\L	.	8ff#\L	.	8.dd\L	.
8A\	.	.	8a\	.	8dd\	.	8ff#\	.	.	.
.	.	.	.	.	.	.	.	.	16ee\Jk	.
8AA/	.	.	8a\	.	8cc#\	.	8ee\	.	4eeT\	.
8AA/J	.	.	8a\J	.	8cc#\J	.	8aa\J	.	.	.
=29	=29	=29	=29	=29	=29	=29	=29	=29	=29	=29
8D\L	.	.	8d\L	.	8ff#\L	.	(32aa\KLL	.	4dd\	-rat
.	.	.	.	.	.	.	16.ff#\)	.	.	.
8F#\	.	.	8d\	.	(16.ee\L	.	(32ee\K	.	.	.
.	.	.	.	.	.	.	16.dd\JJ)	.	.	.
.	.	.	.	.	32dd\JJk)	.	.	.	.	.
8G\	.	.	8d\	.	(32ee\KLL	.	(32ee\KLL	.	4r	.
.	.	.	.	.	16.bb\)	.	16.bb\)	.	.	.
8A\J	.	.	8c#\J	.	(32aa\K	.	(32aa\K	.	.	.
.	.	.	.	.	16.gg\JJ)	.	16.gg\JJ)	.	.	.
!	!	!	!LO:LB:g=original	!	!	!	!LO:LB:g=original	!	!	!
8D\L	.	.	8d\L	.	8ff#\L	.	8ff#\L	.	16.ff#\LL	ex-
!	!	!	!	!	!	!	!	!	!LO:N:vis=32gg	!
.	.	.	.	.	.	.	.	.	64gg\LL	.
!	!	!	!	!	!	!	!	!	!LO:N:vis=32aa	!
.	.	.	.	.	.	.	.	.	64aa\JJJJ	.
8F#\	.	.	8f#\	.	8dd\	.	8ff#\	.	32gg\LLL	-o-
.	.	.	.	.	.	.	.	.	(32ff#\	.
.	.	.	.	.	.	.	.	.	32ee\	.
.	.	.	.	.	.	.	.	.	32dd\JJJ)	.
8G\	.	.	8g\	.	8dd\	.	8ee\	.	16.ee\LL	.
!	!	!	!	!	!	!	!	!	!LO:N:vis=32ff#	!
.	.	.	.	.	.	.	.	.	64ff#\LL	.
!	!	!	!	!	!	!	!	!	!LO:N:vis=32gg	!
.	.	.	.	.	.	.	.	.	64gg\JJJJ	.
8A\J	.	.	8a\J	.	8cc#\J	.	8aa\J	.	32ff#\LLL	.
.	.	.	.	.	.	.	.	.	(32ee\	.
.	.	.	.	.	.	.	.	.	32dd\	.
.	.	.	.	.	.	.	.	.	32cc#\JJJ)	.
=30	=30	=30	=30	=30	=30	=30	=30	=30	=30	=30
8D\L	.	.	8d\L	.	8ff#\L	.	(32aa\KLL	.	16dd\LL	.
.	.	.	.	.	.	.	16.ff#\)	.	.	.
.	.	.	.	.	.	.	.	.	16a\JJ	.
8F#\	.	.	8d\	.	(16.ee\L	.	(32ee\K	.	8a\	-rat
.	.	.	.	.	.	.	16.dd\JJ)	.	.	.
.	.	.	.	.	32dd\JJk)	.	.	.	.	.
8G\	.	.	8d\	.	(32ee\KLL	.	(32ee\KLL	.	8r	.
.	.	.	.	.	16.bb\)	.	16.ddd\)	.	.	.
8A\J	.	.	8c#\J	.	(32aa\K	.	(32aa\K	.	8a\	ex-
.	.	.	.	.	16.gg\JJ)	.	16.gg\JJ)	.	.	.
8D\L	.	.	8d\L	.	8ff#\L	.	8ff#\L	.	16.ff#\LL	-o-
!	!	!	!	!	!	!	!	!	!LO:N:vis=32gg	!
.	.	.	.	.	.	.	.	.	64gg\LL	.
!	!	!	!	!	!	!	!	!	!LO:N:vis=32aa	!
.	.	.	.	.	.	.	.	.	64aa\JJJJ	.
8F#\	.	.	8f#\	.	8dd\	.	8ff#\	.	32gg\LLL	.
.	.	.	.	.	.	.	.	.	(32ff#\	.
.	.	.	.	.	.	.	.	.	32ee\	.
.	.	.	.	.	.	.	.	.	32dd\JJJ)	.
8G\	.	.	8g\	.	8dd\	.	8ee\	.	8ee\	-rat
8A\J	.	.	8a\J	.	8cc#\J	.	8ee\J	.	8g/	pi-
=31	=31	=31	=31	=31	=31	=31	=31	=31	=31	=31
8D\L	.	.	8d\L	.	(32ff#\KLL	.	(32ff#\KLL	.	8f#/	-um
.	.	.	.	.	16.ddd\)	.	16.ddd\)	.	.	.
8E\	.	.	8e\	.	(32ccc#\K	.	(32ccc#\K	.	8a\	ex-
.	.	.	.	.	16.bb\JJ)	.	16.bb\JJ)	.	.	.
8F#\	.	.	8f#\	.	(32aa\KLL	.	(32aa\KLL	.	4dd\	-o-
.	.	.	.	.	16.dd\)	.	16.dd\)	.	.	.
8G\J	.	.	8g\J	.	(32bb\K	.	(32bb\K	.	.	.
.	.	.	.	.	16.dd\JJ)	.	16.dd\JJ)	.	.	.
!LO:LB:g=original	!	!	!	!	!	!	!	!	!	!
!LO:TX:a:t=P:problem=mixed beam	!	!	!	!	!	!	!	!	!	!
8A\L	.	.	4a\	.	4a/	.	4a/	.	8.dd\L	.
8AA/J	.	.	.	.	.	.	.	.	.	.
.	.	.	.	.	.	.	.	.	16ee\Jk	.
4A\	.	.	4r	.	4r	.	4r	.	4eeT\	.
!	!	!	!	!	!	!	!	!	!LO:LB:g=original	!
=32	=32	=32	=32	=32	=32	=32	=32	=32	=32	=32
!LO:TX:a:t=P:problem=mixed beam	!	!	!	!	!	!	!	!	!	!
8D\L	.	.	4r	.	8r	.	8r	.	4dd\	-rat,
8DD/J	.	.	.	.	16r	.	16r	.	.	.
.	.	.	.	.	16ff#\	f	16aa\	f	.	.
8r	.	.	8r	.	(16ff#\LL	.	(16aa\LL	.	4r	.
.	.	.	.	.	16ee\)	.	16gg\)	.	.	.
!	!	!LO:DY:t=forte.	!LO:TX:a:t=P:problem=mixed beam	!	!	!	!	!	!	!
8G\	6	f	8g\L	.	(16ee\	.	(16gg\	.	.	.
.	.	.	.	.	16dd\JJ)	.	16ff#\JJ)	.	.	.
!LO:TX:a:t=P:problem=mixed beam	!	!	!	!	!	!	!	!	!	!
8A\L	6 4	.	8a\	.	(16dd\LL	.	(16ff#\LL	.	2r	.
.	.	.	.	.	16cc#\)	.	16ee\)	.	.	.
8AA/J	5 3	.	8A/J	.	(16cc#\	.	(16ee\	.	.	.
.	.	.	.	.	16ee\JJ)	.	16ccc#\JJ)	.	.	.
8r	.	.	8r	.	(16ee\LL	.	(16ccc#\LL	.	.	.
.	.	.	.	.	16ff#\)	.	16ddd\)	.	.	.
8G#X\	5	.	8g#X\	.	(16ff#\	.	(16ddd\	.	.	.
.	.	.	.	.	16dd\JJ)	.	16ff#\JJ)	.	.	.
=33	=33	=33	=33	=33	=33	=33	=33	=33	=33	=33
!LO:TX:a:t=P:problem=mixed beam	!	!	!LO:TX:a:t=P:problem=mixed beam	!	!	!	!	!	!	!
8A\L	6 4	.	8a\L	.	(16dd\LL	.	(16ff#\LL	.	0r	.
.	.	.	.	.	16cc#\)	.	16ee\)	.	.	.
8AA/J	5 3	.	8A/J	.	(16cc#\	.	(16ee\	.	.	.
.	.	.	.	.	16ee\JJ)	.	16ccc#\JJ)	.	.	.
8r	.	.	8r	.	(16ee\LL	.	(16ccc#\LL	.	.	.
.	.	.	.	.	16ff#\)	.	16ddd\)	.	.	.
8G#X\	7 5	.	8g#X\	.	(16ff#\	.	(16ddd\	.	.	.
.	.	.	.	.	16dd\JJ)	.	16ff#\JJ)	.	.	.
8A\L	.	.	8a\L	.	(32cc#\KLL	.	(32ee\KLL	.	.	.
.	.	.	.	.	16.aa\)	.	16.aa\)	.	.	.
8B\	.	.	8dd\	.	(32ff#\K	.	(32ff#\K	.	.	.
.	.	.	.	.	16.dd\JJ)	.	16.dd\JJ)	.	.	.
!	!	!	!	!	!LO:LB:g=original	!	!	!	!	!
8G#\	.	.	8dd\	.	(32ee\KLL	.	(32ee\KLL	.	.	.
.	.	.	.	.	16.bb\)	.	16.bb\)	.	.	.
8A\J	.	.	8cc#\J	.	(32aa\K	.	(32aa\K	.	.	.
.	.	.	.	.	16.gg\JJ)	.	16.gg\JJ)	.	.	.
=34	=34	=34	=34	=34	=34	=34	=34	=34	=34	=34
8D\L	.	.	8dd\L	.	(32ff#\KLL	.	(32ff#\KLL	.	.	.
.	.	.	.	.	16.ddd\)	.	16.ddd\)	.	.	.
16E\L	.	.	8dd\	.	(32ff#\K	.	(32ff#\K	.	.	.
.	.	.	.	.	16.dd\JJ)	.	16.dd\JJ)	.	.	.
16F#\JJ	.	.	.	.	.	.	.	.	.	.
8G\L	.	.	8g\	.	(32ee\KLL	.	(16.ee\LL	.	.	.
.	.	.	.	.	16.bb\)	.	.	.	.	.
.	.	.	.	.	.	.	32bb\K)	.	.	.
8A\J	.	.	8g\J	.	(32aa\K	.	(16.aa\	.	.	.
.	.	.	.	.	16.cc#\JJ)	.	.	.	.	.
.	.	.	.	.	.	.	32cc#\JJk)	.	.	.
!LO:TX:a:t=P:problem=mixed beam	!	!	!	!	!	!	!LO:LB:g=original	!	!	!
8B\L	.	.	8f#\L	.	8.dd\L	.	8.dd\L	.	.	.
8BB/	6	.	8f#\	.	.	.	.	.	.	.
.	.	.	.	.	32cc#\LL	.	32cc#\LL	.	.	.
.	.	.	.	.	32dd\JJJ	.	32dd\JJJ	.	.	.
!	!	!	!	!	!LO:TX:a:t=P:problem=mixed beam	!	!LO:TX:a:t=P:problem=mixed beam	!	!	!
8C#/	6 5	.	8e\	.	8ee\L	.	8ee\L	.	.	.
8C#/J	.	.	8e\J	.	8g/J	.	8g/J	.	.	.
=35	=35	=35	=35	=35	=35	=35	=35	=35	=35	=35
!LO:TX:a:t=P:problem=mixed beam	!	!	!	!	!	!	!	!	!	!
8D\L	.	.	8d\L	.	32f#/LLL	.	(32f#\LLL	.	1r	.
.	.	.	.	.	(32a/	.	32a\	.	.	.
.	.	.	.	.	32dd/	.	32dd\	.	.	.
.	.	.	.	.	32a/JJJ)	.	32a\JJJ)	.	.	.
8G\	.	.	8d\	.	32b/LLL	.	32b/LLL	.	.	.
.	.	.	.	.	(32g/	.	(32g/	.	.	.
.	.	.	.	.	32f#/)	.	32f#/)	.	.	.
.	.	.	.	.	32e/JJJ	.	32e/JJJ	.	.	.
8A\	6 4	.	8d\	.	8d/L	.	8d/L	.	.	.
8AA/J	x 3	.	8c#\J	.	8e/J	.	8e/J	.	.	.
4DD/	.	.	4d\	.	4d/	.	4d/	.	.	.
!	!	!	!	!	!	!	!	!	!	!
*kcancel	*	*	*kcancel	*	*kcancel	*	*kcancel	*	*kcancel	*
4r;;	.	.	4r	.	4r	.	4r	.	.	.
!LO:LB:g=original	!	!	!	!	!	!	!	!	!	!
=36||	=36||	=36||	=36||	=36||	=36||	=36||	=36||	=36||	=36||	=36||
*k[b-]	*	*	*k[b-]	*	*k[b-]	*	*k[b-]	*	*k[b-]	*
*M3/8	*	*	*M3/8	*	*M3/8	*	*M3/8	*	*M3/8	*
*>B	*	*	*>B	*	*>B	*	*>B	*	*>B	*
!LO:TX:a:t=P:problem=znaki przykluczowe przed metrum	!	!LO:DY:a:t=piano	!LO:TX:a:t=P:problem=kolejność kasowników ccn ffn	!	!LO:TX:a:t=P:problem=kolejność kasowników ccn ffn	!	!LO:TX:a:t=P:problem=kolejność kasowników ccn ffn	!	!	!
4D\	.	p	4d\	p	8f/L	p	8dd\L	p	8dd\	In
.	.	.	.	.	8a/	.	8ff\	.	8ff\	faus-
8r	.	.	8r	.	8g/J	.	8ee\J	.	8dd\	-ta
!	!	!	!LO:LB:g=original	!	!	!	!	!	!	!
=37	=37	=37	=37	=37	=37	=37	=37	=37	=37	=37
8D\L	.	.	8d\L	.	8f/L	.	4.dd\	.	4.dd\	sors,
8E\	7	.	8e\	.	8g/	.	.	.	.	.
.	6	.	.	.	.	.	.	.	.	.
8F\J	.	.	8f\J	.	8a/J	.	.	.	.	.
=38	=38	=38	=38	=38	=38	=38	=38	=38	=38	=38
4.G\	6	.	4.g\	.	4.b-/	.	8ee\L	.	8ee\	ne
.	.	.	.	.	.	.	8gg\	.	8gg\	ma-
.	.	.	.	.	.	.	8qqff/	.	.	.
.	.	.	.	.	.	.	8ee\J	.	8ee\	-la
=39	=39	=39	=39	=39	=39	=39	=39	=39	=39	=39
.	.	.	.	.	.	.	8qqdd/	.	8qqdd/	.
8r	.	.	8r	.	8r	.	4cc#X\	.	8cc#X\	mors
8A\L	#	.	8a\L	.	8e/L	.	.	.	4dd\	nos
8F#X\J	6	.	8f#X\J	.	8a/J	.	8dd\	.	.	.
=40	=40	=40	=40	=40	=40	=40	=40	=40	=40	=40
.	.	.	.	.	8qqa/	.	8qqcc/	.	.	.
8G\L	-	.	8g\L	.	4.g/	.	4.b-X/	.	4.b-X\	tan-
8E\	6 5	.	8e\	.	.	.	.	.	.	.
8C\J	x 4	.	8c\J	.	.	.	.	.	.	.
=41	=41	=41	=41	=41	=41	=41	=41	=41	=41	=41
8F/L	.	.	8f\L	.	4f/	.	4a/	.	4a\	-gat,
!	!	!	!LO:SIC:v:s=bc	!	!	!	!	!	!	!
8C/	.	.	8d\	.	.	.	.	.	.	.
!	!	!	!LO:SIC:v:s=bA	!	!	!	!	!	!	!
8AA/J	.	.	8B-\J	.	8r	.	8r	.	8r	.
=42	=42	=42	=42	=42	=42	=42	=42	=42	=42	=42
4FF/	.	.	4F/	.	8f/L	.	8a\L	.	8a\	nos
.	.	.	.	.	8a/	.	8cc\	.	8cc\	li-
8r	.	.	8r	.	8a/J	.	8ee\J	.	8ff\	-be-
=43	=43	=43	=43	=43	=43	=43	=43	=43	=43	=43
4B-\	6 5	.	4b-\	.	4g/	.	4.ff\	.	8ff\L	-ra
.	.	.	.	.	.	.	.	.	8g\J	.
8c\	6 4	.	8cc\	.	8a/	.	.	.	8a\	à
!	!	!	!	!	!LO:LB:g=original	!	!	!	!	!
=44	=44	=44	=44	=44	=44	=44	=44	=44	=44	=44
8d\L	.	.	8dd\L	.	8b-/L	.	4.ff\	.	8b-\	ma-
8c\J	.	.	8cc\J	.	8a/J	.	.	.	8a\	-lo,
!	!	!	!	!	!	!	!	!	!LO:TX:b:t=V&colon; S&colon;	!
8r	.	.	8r	.	8r	.	.	.	8r	.
!	!	!	!	!	!	!	!	!	!LO:LB:g=original	!
=45	=45	=45	=45	=45	=45	=45	=45	=45	=45	=45
.	.	.	.	.	.	.	.	.	16qqb-/LL	.
.	.	.	.	.	.	.	.	.	16qqcc/JJ	.
8B-\L	.	.	8b-\L	.	8dd\L	.	4.ff\	.	8dd\	San-
8A\J	6	.	8a\J	.	8cc\J	.	.	.	8cc\	-cte
8r	.	.	8r	.	8r	.	.	.	8r	.
!LO:LB:g=original	!	!	!	!	!	!	!	!	!	!
=46	=46	=46	=46	=46	=46	=46	=46	=46	=46	=46
.	.	.	.	.	.	.	.	.	16qqdd/LL	.
.	.	.	.	.	.	.	.	.	16qqee/JJ	.
8r	.	.	8g\L	.	8dd\L	.	8ff\L	.	8ff\	San-
8Bn\L	.	.	8g\J	.	8cc\J	.	8ee\J	.	8ee\	-cte
8c\J	.	.	8r	.	8r	.	8r	.	8r	.
=47	=47	=47	=47	=47	=47	=47	=47	=47	=47	=47
4E\	-5	.	4c\	.	4b-/	.	4gg\	.	8gg\	San-
.	.	.	.	.	.	.	.	.	8b-\	-cte
8F\	.	.	8f\	.	8a/	.	8ff\	.	8a\	Pa-
!	!	!	!	!	!	!	!LO:LB:g=original	!	!	!
=48	=48	=48	=48	=48	=48	=48	=48	=48	=48	=48
*	*	*	*	*	*Xtuplet	*	*Xtuplet	*	*	*
!	!	!	!	!	!LO:TUP:b:problem=klamra łukowa	!	!LO:TUP:problem=klamra łukowa	!	!	!
8BB-/L	.	.	8B-/L	.	24b-/LL	.	24dd\LL	.	24dd\LL	-tro-
.	.	.	.	.	24a/	.	24cc\	.	24cc\	.
.	.	.	.	.	24g/JJ	.	24b-\JJ	.	24b-\JJ	.
.	.	.	.	.	8qqf/	.	8qqa/	.	8qqa/	.
8C/	6 4	.	8c/	.	4e/	.	4g/	.	4g/	.
.	x 3	.	.	.	.	.	.	.	.	.
8CC/J	.	.	8C/J	.	.	.	.	.	.	.
=49	=49	=49	=49	=49	=49	=49	=49	=49	=49	=49
!LO:TX:a:t=P:problem=mixed beam	!	!	!LO:TX:a:t=P:problem=mixed beam	!	!	!	!	!	!	!
8FF/L	.	.	8F/L	.	8f/L	.	4f/	.	4f/	-ne,
8F\	.	.	8f\	.	8a/	.	.	.	.	.
8E\J	.	.	8e\J	.	8g/J	.	8r	.	8r	.
=50	=50	=50	=50	=50	=50	=50	=50	=50	=50	=50
4D\	.	.	4d\	.	4f/	.	8ff\L	.	8ff\	nos
.	.	.	.	.	.	.	16ee\L	.	16ee\LL	li-
.	.	.	.	.	.	.	16dd\	.	16dd\JJ	.
8r	.	.	8r	.	8r	.	16cc\	.	16cc\LL	-be-
!	!	!	!	!	!	!	!	!	!LO:SIC:v:s=16bn	!
!	!	!	!	!	!	!	!	!	!LO:TX:a:t=P:problem=♭ above	!
.	.	.	.	.	.	.	16bn\JJ	.	16b-X\JJ	.
=51	=51	=51	=51	=51	=51	=51	=51	=51	=51	=51
.	.	.	.	.	.	.	8qqa/	.	8qqa/	.
8r	.	.	8r	.	8r	.	4g#X/	.	4g#X\	-ra
!LO:TX:a:t=P:problem=mixed beam	!	!	!LO:TX:a:t=P:problem=mixed beam	!	!	!	!	!	!	!
8E\L	#	.	8e\L	.	8e/L	.	.	.	.	.
8GG#X/J	6	.	8G#X/J	.	8bn/J	.	8ee\	.	8ee\	à
=52	=52	=52	=52	=52	=52	=52	=52	=52	=52	=52
!LO:TX:a:t=P:problem=mixed beam	!	!	!LO:TX:a:t=P:problem=mixed beam	!	!	!	!	!	!LO:SIC:v:s=4.cc#	!
.	.	.	.	.	8qqb-/	.	8qqdd/	.	8qqdd/	.
8AA/L	.	.	8A/L	.	4.a/	.	4.cc#X\	.	4.cc\	ma-
8A\	.	.	8a\	.	.	.	.	.	.	.
8D#X\J	7 5	.	8d#X\J	.	.	.	.	.	.	.
!	!	!	!LO:LB:g=original	!	!	!	!	!	!	!
=53	=53	=53	=53	=53	=53	=53	=53	=53	=53	=53
!LO:TX:a:t=P:problem=mixed beam	!	!	!LO:TX:a:t=P:problem=mixed beam	!	!	!	!	!	!LO:SIC:v:s=4bbn	!
8E\L	.	.	8e\L	.	4g#X/	.	4bn\	.	4b-\	-lo
8EE/	.	.	8E#X/	.	.	.	.	.	.	.
8DD/J	.	.	8D/J	.	8r	.	8r	.	8r	.
=54	=54	=54	=54	=54	=54	=54	=54	=54	=54	=54
4CC/	6	.	4C/	.	4e/	.	8a/L	.	8a\	San-
.	.	.	.	.	.	.	8a/	.	8a\	-cte
8r	.	.	8r	.	8r	.	8a/J	.	8a\	Pa-
=55	=55	=55	=55	=55	=55	=55	=55	=55	=55	=55
!	!	!	!	!	!	!	!LO:TX:a:t=P:problem=mixed beam	!	!	!
4F\	.	.	4f\	.	4a/	.	8a/L	.	8a\L	-tro-
.	.	.	.	.	.	.	8aa\	.	8aa\	.
8E\	6	.	8e\	.	8cc#X\	.	8gg\J	.	8gg\J	.
!LO:LB:g=original	!	!	!	!	!	!	!	!	!LO:LB:g=original	!
=56	=56	=56	=56	=56	=56	=56	=56	=56	=56	=56
8D\L	.	.	4d\	.	4dd\	.	4ff\	.	4ff\	.
8d\	.	.	.	.	.	.	.	.	.	.
8c\J	6	.	8e\	.	8a/	.	8ee\	.	8ee\	.
=57	=57	=57	=57	=57	=57	=57	=57	=57	=57	=57
8Bn\L	7 #	.	8f#X\L	.	8a/L	.	8dd#X\L	.	4.dd#X\	.
8B\	.	.	8f#\	.	8a/	.	8dd#\	.	.	.
8B\J	.	.	8f#\J	.	8a/J	.	8dd#\J	.	.	.
=58	=58	=58	=58	=58	=58	=58	=58	=58	=58	=58
8G#X\L	.	.	8e\L	.	8bn/L	.	8ddn\L	.	4.ddn\	.
8G#\	.	.	8e\	.	8b/	.	8dd\	.	.	.
8G#\J	.	.	8e\J	.	8b/J	.	8dd\J	.	.	.
=59	=59	=59	=59	=59	=59	=59	=59	=59	=59	=59
8A\L	.	.	8A/L	.	8a/L	.	8cc\L	.	8cc\	.
8Bn\	6\	.	8Bn/	.	8g#X/	.	8bn\	.	8bn\	-ne
8c\J	6	.	8c/J	.	8a/J	.	8a\J	.	8a\	Pa-
=60	=60	=60	=60	=60	=60	=60	=60	=60	=60	=60
!	!	!	!LO:TX:a:t=P:problem=mixed beam	!	!	!	!	!	!	!
8d\L	.	.	8d\L	.	8a/	.	24ff\LL	.	24ff\LL	-tro-
.	.	.	.	.	.	.	24ee\	.	24ee\	.
.	.	.	.	.	.	.	24dd\JJ	.	24dd\JJ	.
.	.	.	.	.	.	.	8qqcc/	.	8qqcc/	.
8e\	4	.	8e\	.	4g#X/	.	4bn/	.	4bn\	.
8E\J	#	.	8E/J	.	.	.	.	.	.	.
=61	=61	=61	=61	=61	=61	=61	=61	=61	=61	=61
!	!	!	!LO:TX:a:t=P:problem=mixed beam	!	!	!	!	!	!	!
8F\L	.	.	8F/L	.	4a/	.	4a/	.	4a\	-ne,
8f\	.	.	8f\	.	.	.	.	.	.	.
8e\J	.	.	8e\J	.	8r	.	8r	.	8r	.
!	!	!	!	!	!LO:LB:g=original	!	!LO:LB:g=original	!	!	!
=62	=62	=62	=62	=62	=62	=62	=62	=62	=62	=62
8d\L	.	.	8d\L	.	8a/L	.	8ff\L	.	8ff\	San-
8c\J	6	.	8c\J	.	8a/J	.	8ee\J	.	8ee\	-cte
8r	.	.	8r	.	8r	.	8r	.	8r	.
=63	=63	=63	=63	=63	=63	=63	=63	=63	=63	=63
8G#X\L	6 5	.	8e\L	.	8bn/L	.	8dd\L	.	8dd\	San-
8A\J	.	.	8e\J	.	8a/J	.	8cc\J	.	8cc\	-cte
8r	.	.	8r	.	8r	.	8r	.	8r	.
!LO:LB:g=original	!	!	!	!	!	!	!	!	!	!
=64	=64	=64	=64	=64	=64	=64	=64	=64	=64	=64
4C/	6	.	4e\	.	8aa\L	.	8aa\L	.	8aa\	San-
.	.	.	.	.	(32gg\KL	.	32gg\KL	.	16gg\LL	-cte
.	.	.	.	.	16.ff\)	.	16.ff\	.	.	.
.	.	.	.	.	.	.	.	.	16ff\JJ	.
8D/	.	.	8f\	.	(32ee\K	.	32ee\K	.	16ee\LL	Pa-
.	.	.	.	.	16.dd\JJ)	.	16.dd\JJ	.	.	.
.	.	.	.	.	.	.	.	.	16dd\JJ	.
=65	=65	=65	=65	=65	=65	=65	=65	=65	=65	=65
4.E\	6 4	.	8e\	.	4a/	.	4cc\	.	4cc;\	-tro-
.	.	.	8r	.	.	.	.	.	.	.
.	5 #	.	8r	.	8r	.	8r	.	8bn\	.
=66	=66	=66	=66	=66	=66	=66	=66	=66	=66	=66
!	!	!	!	!	!	!	!	!	!	!
4.AA/	#	.	4.r	.	4.r	.	4.r	.	4a\	-ne
!LO:TX:b:t=Da Capo.	!	!	!LO:TX:b:t=Da Capo	!	!LO:TX:b:t=Da Capo.	!	!LO:TX:b:t=Da Capo.	!	!LO:TX:b:t=Da Capo.	!
.	.	.	.	.	.	.	.	.	8r	.
==	==	==	==	==	==	==	==	==	==	==
*-	*-	*-	*-	*-	*-	*-	*-	*-	*-	*-
!!!system-decoration: s1[g1]s5
!!!RDF**kern: > = above
!!!RDF**dynam: p = "pia."
!!!RDF**dynam: f = "for:"
!!!ENC: Marta Lawrence
!!!END: 2020-11-13
!!!ENC: Kamil Watkowski
!!!END: 2020-06-06
